X: 830
T: the Men from Mallow   #2
R: hornpipe
%S: s:3 b:18(6+6+6)
B: Francis O'Neill: "The Dance Music of Ireland" (1907) #830
Z: Frank Nordberg - http://www.musicaviva.com
F: http://www.musicaviva.com/abc/tunes/ireland/oneill-1001/0830/oneill-1001-0830-1.abc
N: Compacted via repeats and multiple endings [JC]
M: C|
L: 1/8
K: D
"^A"|: (AG) \
| F2(EF) D2(3ABc | d2(=cB) ABcG | [1,3 E2(DE) =C2(C=F) | EDEF G2 :|[2,4 FDFA GECE | D2DD D2 :|
"^B"|: (3ABc \
| d2(cd) AFDA | d2(cd) A2(AB) | =cBcA GECE | =cBcA G2 || (3ABc | [1,3 d2(cd) AFDA | d2(cd) ABcG |
| FDFA GECE | D2DD D2 :| [2,4 dcBd cBAc | BAGB A2D2 | FDFA GECE | D2DD D2 |]
